X: 1
T: Humours Of Whiskey, The
M: 9/8
L: 1/8
R: slip jig
K: Emin
B2A BEE BEE|B2A BGE FED|B2A BEE BEE|DFG A2G FED|
B2A Bee ~B3|B2A Beg fed|B2A BEE BEE|DFG A2G FED|:
G2A B2A BcA|~G3 B2d eAA|G2A B2A B2d|eAA A2G FED:|
